X:21
T:Flim’s Castle. Car.21
M:2/4
L:1/16
Q:1/4=100
C:”A Country Dance”
S:CarlisleMS,Anon.c1812.AGG’s transcription
R:.Country Dance
O:England
A:Carlisle
Z:vmp.Chris Partington
K:Bb
fe|dffd cedc|d2B2B2 gf|e2ed c2cB|ABcA F2fe|!
dffd cedc|d2B2B2 ba|g2gf =efge|f2F2F2||!
f2|{a}b2f2d2f2|{f}e2c2A2F2|B2d2f2b2|abc’a fgaf|!
{a}b2f2d2f2|{f}e2c2A2F2|Bcdc fgag|b2b2b2 f=e|!
f2B2b2B2|c’bag fedf|f2d2b2ab|abc’a f2f=e|!
f2B2b2B2|c’bag fedc|dfed cgfA|Bcde”^DC” fgab|]

